projects/seb-pictograms/svg/light/25-Picto-Light_black.svg

<svg xmlns="http://www.w3.org/2000/svg" viewBox="0 0 170 170"><path d="M154.9 114.4h-61l-.5-1.5a14.5 14.5 0 00-8.1-7.9L47.4 90.1H8a1.5 1.5 0 00-1.5 1.5V162a1.5 1.5 0 001.5 1.5h20.9a1.5 1.5 0 001.5-1.5v-12l40.9 8.6a27.5 27.5 0 0014.7-1.2l71.9-26.4a8.6 8.6 0 00-3-16.6zM27.4 160.5H9.5V93h17.9zm129.4-32.3l-71.9 26.4a24.5 24.5 0 01-13 1.1L30.4 147V93h16.2l37.6 14.7a11.6 11.6 0 01-8.5 21.5l-25.7-10-1.1 2.8 25.7 10.1a14.7 14.7 0 005.4 1 14.6 14.6 0 0014.5-15.7H155a5.6 5.6 0 011.9 10.8zM85 52.8a23.1 23.1 0 10-23.1-23.2A23.2 23.2 0 0085 52.8zm0-43.3a20.1 20.1 0 11-20.1 20.1A20.2 20.2 0 0185 9.5zm45.9 90.9a23.1 23.1 0 10-23.1-23.1 23.2 23.2 0 0023.1 23.1zm0-43.3a20.1 20.1 0 11-20.1 20.1 20.2 20.2 0 0120.1-20.1z"/></svg>

<svg id="PIKTO_LIGHT" xmlns="http://www.w3.org/2000/svg" viewBox="0 0 170 170"><title>light_black</title><path d="M154.9,114.4h-61l-.5-1.5a14.5,14.5,0,0,0-8.1-7.9L47.4,90.1H8a1.5,1.5,0,0,0-1.5,1.5V162A1.5,1.5,0,0,0,8,163.5H28.9a1.5,1.5,0,0,0,1.5-1.5V150l40.9,8.6A27.5,27.5,0,0,0,86,157.4l71.9-26.4a8.6,8.6,0,0,0-3-16.6ZM27.4,160.5H9.5V93H27.4Zm129.4-32.3L84.9,154.6a24.5,24.5,0,0,1-13,1.1L30.4,147V93H46.6l37.6,14.7a11.6,11.6,0,0,1-8.5,21.5L50,119.2,48.9,122l25.7,10.1a14.7,14.7,0,0,0,5.4,1,14.6,14.6,0,0,0,14.5-15.7h60.5a5.6,5.6,0,0,1,1.9,10.8Z"/><path d="M85,52.8A23.1,23.1,0,1,0,61.9,29.6,23.2,23.2,0,0,0,85,52.8ZM85,9.5A20.1,20.1,0,1,1,64.9,29.6,20.2,20.2,0,0,1,85,9.5Z"/><path d="M130.9,100.4a23.1,23.1,0,1,0-23.1-23.1A23.2,23.2,0,0,0,130.9,100.4Zm0-43.3a20.1,20.1,0,1,1-20.1,20.1A20.2,20.2,0,0,1,130.9,57.1Z"/></svg>
